X: 1
T: Alex Campbell's
M: 4/4
L: 1/8
R: reel
K: Amin
A2 AB cA A2 | efed cA A2 | A2 AB cA A2 | d2 dc BG G2 |
A2 AB cA A2 | efed cA A2 | g2 dc BG G2 | BGcG BG G2 :|
a2 ed cA A2 | cAEA cA A2 | a2 ed cA A2 | GB B2 cB B2 |
a2 ed cA A2 | cAEA cA A2 | eg^fa gedc | BG G2 BcdB :|
